X:49
T:La crouzado
R:Bourre  3 temps
C:trad
A:Massif Central
O:France
M:3/4
L:1/4
Q:1/4=200
K:Bb
f2 d/2e/2|f2 d/2e/2|fed|c3|cde|f>g f|edc|d/2c/2B2:|
|:c/2d/2ef|c2 f|g/2f/2ed|c/2e/2dB|
c/2d/2ef|c2 f|g/2f/2ed|c2 F:|
|:BA/2B/2c/2d/2|ecd|Bc/2d/2c/2B/2|A/2G/2FF|
BA/2B/2c/2d/2|ecg|fd/2f/2e/2c/2|1B2F:|2B2||
